packages/react/src/components/base/Icon/assets/icon-train-regional.svg

<svg width="24" height="24" viewBox="0 0 24 24" xmlns="http://www.w3.org/2000/svg" fill="currentColor"> <path d="M21.3354 10.2037L19.2354 2.50688C19.1273 2.11009 18.8916 1.75987 18.5649 1.51016C18.2381 1.26046 17.8383 1.12512 17.427 1.125H6.57262C6.16136 1.12512 5.76154 1.26046 5.43475 1.51016C5.10797 1.75987 4.87235 2.11009 4.76418 2.50688L2.66418 10.2037C2.61169 10.3978 2.61169 10.6022 2.66418 10.7963L4.76418 18.4931C4.87235 18.8899 5.10797 19.2401 5.43475 19.4898C5.76154 19.7395 6.16136 19.8749 6.57262 19.875H6.74981L5.84981 21.075C5.67079 21.3137 5.59392 21.6137 5.63612 21.9091C5.67831 22.2045 5.83611 22.471 6.07481 22.65C6.3135 22.829 6.61354 22.9059 6.90891 22.8637C7.20428 22.8215 7.47079 22.6637 7.64981 22.425L9.56231 19.875H14.4373L16.3498 22.425C16.5288 22.6637 16.7953 22.8215 17.0907 22.8637C17.3861 22.9059 17.6861 22.829 17.9248 22.65C18.1635 22.471 18.3213 22.2045 18.3635 21.9091C18.4057 21.6137 18.3288 21.3137 18.1498 21.075L17.2498 19.875H17.427C17.8383 19.8749 18.2381 19.7395 18.5649 19.4898C18.8916 19.2401 19.1273 18.8899 19.2354 18.4931L21.3354 10.7963C21.3879 10.6022 21.3879 10.3978 21.3354 10.2037ZM6.8595 3.375H17.1401L18.8436 9.61219L11.9998 10.8563L5.15606 9.61219L6.8595 3.375ZM5.30512 11.9259L10.8748 12.9375V17.625H6.8595L5.30512 11.9259ZM17.1401 17.625H13.1248V12.9375L18.6945 11.925L17.1401 17.625ZM7.87481 7.5C7.87481 7.20163 7.99334 6.91548 8.20431 6.7045C8.41529 6.49353 8.70144 6.375 8.99981 6.375H14.9998C15.2982 6.375 15.5843 6.49353 15.7953 6.7045C16.0063 6.91548 16.1248 7.20163 16.1248 7.5C16.1248 7.79837 16.0063 8.08452 15.7953 8.2955C15.5843 8.50647 15.2982 8.625 14.9998 8.625H8.99981C8.70144 8.625 8.41529 8.50647 8.20431 8.2955C7.99334 8.08452 7.87481 7.79837 7.87481 7.5Z"/> </svg>

<svg viewBox="0 0 24 24" xmlns="http://www.w3.org/2000/svg" aria-hidden="true" fill="currentColor"><path d="m21.335 10.204-2.1-7.697a1.875 1.875 0 0 0-1.808-1.382H6.573a1.875 1.875 0 0 0-1.809 1.382l-2.1 7.697a1.14 1.14 0 0 0 0 .592l2.1 7.697a1.875 1.875 0 0 0 1.809 1.382h.177l-.9 1.2a1.125 1.125 0 1 0 1.8 1.35l1.912-2.55h4.875l1.913 2.55a1.125 1.125 0 1 0 1.8-1.35l-.9-1.2h.177a1.875 1.875 0 0 0 1.808-1.382l2.1-7.697a1.14 1.14 0 0 0 0-.592M6.86 3.375h10.28l1.704 6.237L12 10.856 5.156 9.612zm-1.555 8.55 5.57 1.012v4.688H6.859zm11.835 5.7h-4.015v-4.687l5.57-1.013zM7.875 7.5A1.125 1.125 0 0 1 9 6.375h6a1.125 1.125 0 0 1 0 2.25H9A1.125 1.125 0 0 1 7.875 7.5"/></svg>
